X:1
T:Penfield (Pierce), 76.76 D
T:Penfield (Pierce), 76.76 D
T:Jason Noble Pierce, 1908
T:Public Domain Courtesy of the Cyber Hymnal™
C:Jason Noble Pierce, 1908
Z:Public Domain
Z:Courtesy of the Cyber Hymnal™
%%score ( 1 2 ) ( 3 4 )
L:1/8
Q:1/4=110
M:4/4
K:Eb
V:1 treble 
V:2 treble 
V:3 bass 
V:4 bass 
V:1
 [GB]2 | [Ge]3 [Ee] [Ed]2 [Ec]2 | [GB]4 [EG]2 (E>F) | [EG]2 [EB]2 [DG]2 [DF]2 | [B,E]6 [GB]2 | %5
 [Ge]3 [Ge] [Gd]2 [Gd]2 | [Gc]4 G2 [GB]2 | F2 [Dd]2 [Ed]3 [Ec] | [DB]6 [B,B]2 | %9
 [CB]2 [DB]2 [GB]2 [FB]2 | B2 [EB]4 [Cc]2 | [Dc]2 [=Ec]2 [Ac]3 [Gc] | [Fc]6 [Ac]2 | %13
 [Ad]3 [Ad] [Ac]2 [AB]2 | (e2 G2) !fermata![GB]2 [FA]2 | [EG]2 [CG]2 [DG]3 [DF] | [B,E]6 |] %17
V:2
 x2 | x8 | x6 E2 | x8 | x8 | x8 | x4 G2 x2 | F2 x6 | x8 | x8 | (F>E) x6 | x8 | x8 | x8 | G4 x4 | %15
 x8 | x6 |] %17
V:3
 [E,B,]2 | [E,B,]3 [G,B,] A,2 [A,C]2 | [E,E]4 [E,B,]2 [C,=A,]2 | %3
 [B,,B,]2 [B,,G,]2 [B,,A,]2 [B,,A,]2 | [E,G,]6 [E,B,]2 | [C,C]3 [C,C] [D,=B,]2 [D,B,]2 | %6
 [E,C]4 [E,C]2 [=E,^C]2 | [F,D]2 [F,B,]2 [F,=A,]3 [F,A,] | [B,,F,]6 [B,,A,]2 | %9
 [C,A,]2 [D,A,]2 [G,B,]2 [F,A,]2 | ([F,A,]>[E,G,]) [E,G,]4 [C,B,]2 | %11
 [D,B,]2 [=E,B,]2 [A,C]3 [G,B,] | [F,A,]6 [F,C]2 | [B,,B,]3 [B,,B,] [C,B,]2 [D,B,]2 | %14
 (B,2{E} _D2) !fermata![G,,D]2 [A,,C]2 | [B,,B,]2 [B,,=A,]2 [B,,_A,]3 [B,,A,] | [E,G,]6 |] %17
V:4
 x2 | x4 A,2 x2 | x8 | x8 | x8 | x8 | x8 | x8 | x8 | x8 | x8 | x8 | x8 | x8 | E,4 x4 | x8 | x6 |] %17

